icons/line/folder.svg

<svg width="24" height="24" viewBox="0 0 24 24" fill="none" xmlns="http://www.w3.org/2000/svg">
<path d="M3 6C3 4.89543 3.89543 4 5 4H8.92963C9.59834 4 10.2228 4.3342 10.5937 4.8906L11.4063 6.1094C11.7772 6.6658 12.4017 7 13.0704 7H19C20.1046 7 21 7.89543 21 9V18C21 19.1046 20.1046 20 19 20H5C3.89543 20 3 19.1046 3 18V6Z" stroke="currentColor" stroke-width="2" stroke-linecap="round" stroke-linejoin="round"/>
</svg>

<svg width="24" height="24" fill="none" xmlns="http://www.w3.org/2000/svg"><path d="M3 6a2 2 0 012-2h3.93a2 2 0 011.664.89l.812 1.22A2 2 0 0013.07 7H19a2 2 0 012 2v9a2 2 0 01-2 2H5a2 2 0 01-2-2V6z" stroke="currentColor" stroke-width="2" stroke-linecap="round" stroke-linejoin="round"/></svg>
